X:27
T:O'Brien's Tower
C:Paddy O'Brien (Offaly)
R:reel
D:Snug in the Blanket,P.O'Brien,J.Gans,D.Sproule
Z:Paul Stewart Cranford (P.S.C.), <http://www.cranfordpub.com>
L:1/8
Q:333
M:C|
K:G
GG,G,B, DGBG|A2 GB AGEA|GG,G,B, DGBG|AGED dBAB|
GG,G,B, DGBG|A2 GB AGEA|GEED EFGB|AGEF DEFA:|
|:G2 BG dGBG|EDAD dDAD|G2 BG dGBG|A,A,B,C DDEF|
G2 BG dGBG|EDAD dDAF|GEED EFGB|AGEF DEFA:|
